src/assets/cards/7H.svg

<svg clip-rule="evenodd" fill-rule="evenodd" stroke-linejoin="round" stroke-miterlimit="2" viewBox="0 0 934 1300" xmlns="http://www.w3.org/2000/svg"><g fill="#d40000" fill-rule="nonzero"><path d="m52.771 194.186c8.882-46.2 18.365-80.872 43.253-118.53h-50.566v16.207h-13.435v-30.545h73.974l9.119 14.338c-26.418 28.325-50.616 119.873-46.326 118.53z"/><path d="m880.04 1105.81c-8.882 46.21-18.378 80.88-43.253 118.54h50.566v-16.21h13.435v30.54h-73.974l-9.119-14.33c26.418-28.32 50.616-119.87 46.326-118.54z"/><path d="m38.123 258.565c-6.583-14.467-7.291-39.188 12.375-42.533 14.875-1.909 20.917 4.991 22.084 15.591.625 3.096 2.375 3.284 2.916-.241.834-10.875 11.625-17.221 20-15.625 23.042 3.937 21.709 29.283 14.167 46.479-11.375 22.833-23.333 37.241-34.333 60.216-12.667-23.92-27.125-43.354-37.209-63.887z"/><path d="m181.29 124.594c29.792-1.975 45.292 23.446 48.333 43.488 1.792 3.179 2.792 2.283 3.459-.18 1.458-25.725 24.5-46.75 45.833-43.875 34.708.45 55.792 39.063 49.833 71.746-7.25 39.921-28.75 63.963-45 88.721-18.458 25.633-43.25 62.663-51.208 80.488 0 0-25.208-38.355-58-83.459-21.917-30.158-39.5-62.841-41.125-90.979-1.833-32.15 11.333-60.967 47.875-65.95z"/><path d="m646.04 124.594c29.75-1.975 45.25 23.446 48.292 43.488 1.791 3.179 2.791 2.283 3.5-.18 1.458-25.725 24.458-46.75 45.791-43.875 34.709.45 55.792 39.063 49.875 71.746-7.25 39.921-28.75 63.963-45.041 88.721-18.417 25.633-43.209 62.663-51.209 80.488 0 0-25.208-38.355-58-83.459-21.916-30.158-39.458-62.841-41.083-90.979-1.875-32.15 11.333-60.967 47.875-65.95z"/><path d="m416.457 333.444c29.75-1.975 45.291 23.45 48.291 43.488 1.834 3.183 2.792 2.283 3.5-.18 1.459-25.725 24.459-46.75 45.792-43.875 34.708.455 55.792 39.067 49.875 71.746-7.25 39.925-28.75 63.963-45.042 88.721-18.416 25.638-43.208 62.667-51.208 80.488 0 0-25.208-38.355-58-83.459-21.917-30.158-39.458-62.841-41.083-90.979-1.875-32.146 11.333-60.967 47.875-65.95z"/><path d="m181.29 542.298c29.792-1.979 45.292 23.446 48.333 43.484 1.792 3.183 2.792 2.287 3.459-.175 1.458-25.725 24.5-46.755 45.833-43.88 34.708.455 55.792 39.067 49.833 71.746-7.25 39.925-28.75 63.963-45 88.721-18.458 25.638-43.25 62.667-51.208 80.488 0 0-25.208-38.35-58-83.455-21.917-30.162-39.5-62.845-41.125-90.983-1.833-32.146 11.333-60.967 47.875-65.946z"/><path d="m646.04 542.298c29.75-1.979 45.25 23.446 48.292 43.484 1.791 3.183 2.791 2.287 3.5-.175 1.458-25.725 24.458-46.755 45.791-43.88 34.709.455 55.792 39.067 49.875 71.746-7.25 39.925-28.75 63.963-45.041 88.721-18.417 25.638-43.209 62.667-51.209 80.488 0 0-25.208-38.35-58-83.455-21.916-30.162-39.458-62.845-41.083-90.983-1.875-32.146 11.333-60.967 47.875-65.946z"/><path d="m824.873 1053.81c-6.625 14.46-7.333 39.18 12.375 42.53 14.834 1.91 20.875-5 22.084-15.59.583-3.1 2.333-3.29 2.875.24.875 10.87 11.625 17.22 20.041 15.63 23.042-3.94 21.667-29.29 14.167-46.48-11.375-22.84-23.333-37.25-34.375-60.221-12.625 23.921-27.083 43.351-37.167 63.891z"/><path d="m646.04 1192.68c29.75 1.98 45.25-23.45 48.292-43.49 1.791-3.18 2.791-2.28 3.5.18 1.458 25.72 24.458 46.75 45.791 43.87 34.709-.45 55.792-39.06 49.875-71.74-7.25-39.92-28.75-63.96-45.041-88.72-18.417-25.64-43.209-62.665-51.209-80.486 0 0-25.208 38.35-58 83.456-21.916 30.16-39.458 62.84-41.083 90.98-1.875 32.15 11.333 60.97 47.875 65.95z"/><path d="m181.29 1192.68c29.792 1.98 45.292-23.45 48.333-43.49 1.792-3.18 2.792-2.28 3.459.18 1.458 25.72 24.5 46.75 45.833 43.87 34.708-.45 55.792-39.06 49.833-71.74-7.25-39.92-28.75-63.96-45-88.72-18.458-25.64-43.25-62.665-51.208-80.486 0 0-25.208 38.35-58 83.456-21.917 30.16-39.5 62.84-41.125 90.98-1.833 32.15 11.333 60.97 47.875 65.95z"/></g></svg>

<?xml version="1.0" encoding="UTF-8" standalone="no"?>
<!DOCTYPE svg PUBLIC "-//W3C//DTD SVG 1.1//EN" "http://www.w3.org/Graphics/SVG/1.1/DTD/svg11.dtd">
<svg width="100%" height="100%" viewBox="0 0 934 1300" version="1.1" xmlns="http://www.w3.org/2000/svg" xmlns:xlink="http://www.w3.org/1999/xlink" xml:space="preserve" xmlns:serif="http://www.serif.com/" style="fill-rule:evenodd;clip-rule:evenodd;stroke-linejoin:round;stroke-miterlimit:2;">
    <g id="_7H" serif:id="7H">
        <g id="path7110">
            <path d="M52.771,194.186C61.653,147.986 71.136,113.314 96.024,75.656L45.458,75.656L45.458,91.863L32.023,91.863L32.023,61.318L105.997,61.318L115.116,75.656C88.698,103.981 64.5,195.529 68.79,194.186L52.771,194.186Z" style="fill:rgb(212,0,0);fill-rule:nonzero;"/>
        </g>
        <g id="path7126">
            <path d="M880.04,1105.81C871.158,1152.02 861.662,1186.69 836.787,1224.35L887.353,1224.35L887.353,1208.14L900.788,1208.14L900.788,1238.68L826.814,1238.68L817.695,1224.35C844.113,1196.03 868.311,1104.48 864.021,1105.81L880.04,1105.81Z" style="fill:rgb(212,0,0);fill-rule:nonzero;"/>
        </g>
        <g id="path8632">
            <path d="M38.123,258.565C31.54,244.098 30.832,219.377 50.498,216.032C65.373,214.123 71.415,221.023 72.582,231.623C73.207,234.719 74.957,234.907 75.498,231.382C76.332,220.507 87.123,214.161 95.498,215.757C118.54,219.694 117.207,245.04 109.665,262.236C98.29,285.069 86.332,299.477 75.332,322.452C62.665,298.532 48.207,279.098 38.123,258.565Z" style="fill:rgb(212,0,0);fill-rule:nonzero;"/>
        </g>
        <g id="path8538">
            <path d="M181.29,124.594C211.082,122.619 226.582,148.04 229.623,168.082C231.415,171.261 232.415,170.365 233.082,167.902C234.54,142.177 257.582,121.152 278.915,124.027C313.623,124.477 334.707,163.09 328.748,195.773C321.498,235.694 299.998,259.736 283.748,284.494C265.29,310.127 240.498,347.157 232.54,364.982C232.54,364.982 207.332,326.627 174.54,281.523C152.623,251.365 135.04,218.682 133.415,190.544C131.582,158.394 144.748,129.577 181.29,124.594Z" style="fill:rgb(212,0,0);fill-rule:nonzero;"/>
        </g>
        <g id="path8540">
            <path d="M646.04,124.594C675.79,122.619 691.29,148.04 694.332,168.082C696.123,171.261 697.123,170.365 697.832,167.902C699.29,142.177 722.29,121.152 743.623,124.027C778.332,124.477 799.415,163.09 793.498,195.773C786.248,235.694 764.748,259.736 748.457,284.494C730.04,310.127 705.248,347.157 697.248,364.982C697.248,364.982 672.04,326.627 639.248,281.523C617.332,251.365 599.79,218.682 598.165,190.544C596.29,158.394 609.498,129.577 646.04,124.594Z" style="fill:rgb(212,0,0);fill-rule:nonzero;"/>
        </g>
        <g id="path8542">
            <path d="M416.457,333.444C446.207,331.469 461.748,356.894 464.748,376.932C466.582,380.115 467.54,379.215 468.248,376.752C469.707,351.027 492.707,330.002 514.04,332.877C548.748,333.332 569.832,371.944 563.915,404.623C556.665,444.548 535.165,468.586 518.873,493.344C500.457,518.982 475.665,556.011 467.665,573.832C467.665,573.832 442.457,535.477 409.665,490.373C387.748,460.215 370.207,427.532 368.582,399.394C366.707,367.248 379.915,338.427 416.457,333.444Z" style="fill:rgb(212,0,0);fill-rule:nonzero;"/>
        </g>
        <g id="path8544">
            <path d="M181.29,542.298C211.082,540.319 226.582,565.744 229.623,585.782C231.415,588.965 232.415,588.069 233.082,585.607C234.54,559.882 257.582,538.852 278.915,541.727C313.623,542.182 334.707,580.794 328.748,613.473C321.498,653.398 299.998,677.436 283.748,702.194C265.29,727.832 240.498,764.861 232.54,782.682C232.54,782.682 207.332,744.332 174.54,699.227C152.623,669.065 135.04,636.382 133.415,608.244C131.582,576.098 144.748,547.277 181.29,542.298Z" style="fill:rgb(212,0,0);fill-rule:nonzero;"/>
        </g>
        <g id="path8546">
            <path d="M646.04,542.298C675.79,540.319 691.29,565.744 694.332,585.782C696.123,588.965 697.123,588.069 697.832,585.607C699.29,559.882 722.29,538.852 743.623,541.727C778.332,542.182 799.415,580.794 793.498,613.473C786.248,653.398 764.748,677.436 748.457,702.194C730.04,727.832 705.248,764.861 697.248,782.682C697.248,782.682 672.04,744.332 639.248,699.227C617.332,669.065 599.79,636.382 598.165,608.244C596.29,576.098 609.498,547.277 646.04,542.298Z" style="fill:rgb(212,0,0);fill-rule:nonzero;"/>
        </g>
        <g id="path8666">
            <path d="M824.873,1053.81C818.248,1068.27 817.54,1092.99 837.248,1096.34C852.082,1098.25 858.123,1091.34 859.332,1080.75C859.915,1077.65 861.665,1077.46 862.207,1080.99C863.082,1091.86 873.832,1098.21 882.248,1096.62C905.29,1092.68 903.915,1067.33 896.415,1050.14C885.04,1027.3 873.082,1012.89 862.04,989.919C849.415,1013.84 834.957,1033.27 824.873,1053.81Z" style="fill:rgb(212,0,0);fill-rule:nonzero;"/>
        </g>
        <g id="path8620">
            <path d="M646.04,1192.68C675.79,1194.66 691.29,1169.23 694.332,1149.19C696.123,1146.01 697.123,1146.91 697.832,1149.37C699.29,1175.09 722.29,1196.12 743.623,1193.24C778.332,1192.79 799.415,1154.18 793.498,1121.5C786.248,1081.58 764.748,1057.54 748.457,1032.78C730.04,1007.14 705.248,970.115 697.248,952.294C697.248,952.294 672.04,990.644 639.248,1035.75C617.332,1065.91 599.79,1098.59 598.165,1126.73C596.29,1158.88 609.498,1187.7 646.04,1192.68Z" style="fill:rgb(212,0,0);fill-rule:nonzero;"/>
        </g>
        <g id="path8622">
            <path d="M181.29,1192.68C211.082,1194.66 226.582,1169.23 229.623,1149.19C231.415,1146.01 232.415,1146.91 233.082,1149.37C234.54,1175.09 257.582,1196.12 278.915,1193.24C313.623,1192.79 334.707,1154.18 328.748,1121.5C321.498,1081.58 299.998,1057.54 283.748,1032.78C265.29,1007.14 240.498,970.115 232.54,952.294C232.54,952.294 207.332,990.644 174.54,1035.75C152.623,1065.91 135.04,1098.59 133.415,1126.73C131.582,1158.88 144.748,1187.7 181.29,1192.68Z" style="fill:rgb(212,0,0);fill-rule:nonzero;"/>
        </g>
    </g>
</svg>
